src/svg/monochrome/32/inactive.svg

<svg width="32" height="32" viewBox="0 0 32 32" fill="none" xmlns="http://www.w3.org/2000/svg">
<g id="inactive">
<path id="Vector (Stroke)" d="M18.3428 27.7715C18.8846 27.6643 19.4114 28.0168 19.5186 28.5586C19.6256 29.1002 19.273 29.6261 18.7314 29.7334C17.8473 29.9083 16.9337 30 16 30C15.0663 30 14.1527 29.9083 13.2686 29.7334C12.727 29.6261 12.3744 29.1002 12.4814 28.5586C12.5886 28.0168 13.1154 27.6643 13.6572 27.7715C14.4141 27.9212 15.1974 28 16 28C16.8026 28 17.5859 27.9212 18.3428 27.7715ZM4.63379 22.3916C5.06398 22.104 5.63603 22.1946 5.95898 22.585L6.02051 22.667L6.36133 23.1484C7.06489 24.0954 7.9046 24.9351 8.85156 25.6387L9.33301 25.9795L9.41504 26.041C9.80541 26.364 9.89602 26.936 9.6084 27.3662C9.32041 27.7964 8.75606 27.9321 8.30859 27.6943L8.2207 27.6416L7.93652 27.4463C6.62478 26.5206 5.47936 25.3752 4.55371 24.0635L4.3584 23.7793L4.30566 23.6914C4.06787 23.2439 4.20362 22.6796 4.63379 22.3916ZM26.041 22.585C26.364 22.1946 26.936 22.104 27.3662 22.3916C27.8251 22.6988 27.9487 23.3204 27.6416 23.7793L27.4463 24.0635C26.4544 25.469 25.2101 26.6837 23.7793 27.6416L23.6914 27.6943C23.2439 27.9321 22.6796 27.7964 22.3916 27.3662C22.0848 26.9073 22.2082 26.2866 22.667 25.9795L23.1484 25.6387C24.2531 24.8179 25.2126 23.8124 25.9795 22.667L26.041 22.585ZM2 16C2 15.0663 2.09169 14.1527 2.2666 13.2686C2.3739 12.727 2.89978 12.3744 3.44141 12.4814C3.98319 12.5886 4.3357 13.1154 4.22852 13.6572C4.07879 14.4141 4 15.1974 4 16C4 16.8026 4.07879 17.5859 4.22852 18.3428C4.3357 18.8846 3.98319 19.4114 3.44141 19.5186C2.89978 19.6256 2.3739 19.273 2.2666 18.7314C2.09169 17.8473 2 16.9337 2 16ZM28 16C28 15.1974 27.9212 14.4141 27.7715 13.6572L29.7334 13.2686C29.9083 14.1527 30 15.0663 30 16C30 16.9337 29.9083 17.8473 29.7334 18.7314C29.6261 19.273 29.1002 19.6256 28.5586 19.5186C28.0168 19.4114 27.6643 18.8846 27.7715 18.3428C27.9212 17.5859 28 16.8026 28 16ZM28.5586 12.4814C29.1002 12.3744 29.6261 12.727 29.7334 13.2686L27.7715 13.6572C27.6643 13.1154 28.0168 12.5886 28.5586 12.4814ZM8.30859 4.30566C8.75606 4.06787 9.32041 4.20362 9.6084 4.63379C9.91521 5.09267 9.79177 5.71338 9.33301 6.02051L8.85156 6.36133C7.74686 7.18208 6.78735 8.18762 6.02051 9.33301L5.95898 9.41504C5.63603 9.80541 5.06397 9.89602 4.63379 9.6084C4.17491 9.30119 4.05128 8.67962 4.3584 8.2207L4.55371 7.93652C5.54557 6.53095 6.78992 5.31628 8.2207 4.3584L8.30859 4.30566ZM22.3916 4.63379C22.6796 4.20362 23.2439 4.06787 23.6914 4.30566L23.7793 4.3584L24.0635 4.55371C25.3752 5.47936 26.5206 6.62478 27.4463 7.93652L27.6416 8.2207L27.6943 8.30859C27.9321 8.75606 27.7964 9.32041 27.3662 9.6084C26.936 9.89602 26.364 9.80541 26.041 9.41504L25.9795 9.33301L25.6387 8.85156C24.9351 7.9046 24.0954 7.06489 23.1484 6.36133L22.667 6.02051L22.585 5.95898C22.1946 5.63603 22.104 5.06398 22.3916 4.63379ZM16 2C16.9337 2 17.8473 2.09169 18.7314 2.2666C19.273 2.3739 19.6256 2.89978 19.5186 3.44141C19.4114 3.98319 18.8846 4.3357 18.3428 4.22852C17.5859 4.07879 16.8026 4 16 4C15.1974 4 14.4141 4.07879 13.6572 4.22852C13.1154 4.3357 12.5886 3.98319 12.4814 3.44141C12.3744 2.89978 12.727 2.3739 13.2686 2.2666C14.1527 2.09169 15.0663 2 16 2Z" fill="#3D3C3C"/>
</g>
</svg>

<svg xmlns="http://www.w3.org/2000/svg" width="32" height="32" fill="currentColor" viewBox="0 0 32 32">
  <path d="M18.343 27.771a1 1 0 0 1 .388 1.962 14.066 14.066 0 0 1-5.462 0 1 1 0 1 1 .388-1.962 12.066 12.066 0 0 0 4.686 0Zm-13.71-5.38a1 1 0 0 1 1.326.194l.062.082.34.481a12.075 12.075 0 0 0 2.49 2.49l.482.341.082.062a1 1 0 0 1-1.106 1.653l-.088-.052-.284-.196a14.076 14.076 0 0 1-3.383-3.383l-.196-.284-.052-.088a1.001 1.001 0 0 1 .328-1.3Zm21.408.194a1 1 0 0 1 1.6 1.194l-.195.285a14.075 14.075 0 0 1-3.667 3.578l-.088.052a1.001 1.001 0 0 1-1.024-1.714l.481-.341a12.074 12.074 0 0 0 2.832-2.972l.061-.082ZM2 16c0-.934.092-1.847.267-2.731a1 1 0 1 1 1.962.388 12.063 12.063 0 0 0 0 4.686 1 1 0 0 1-1.962.388A14.066 14.066 0 0 1 2 16Zm26 0c0-.803-.079-1.586-.229-2.343l1.962-.388a14.066 14.066 0 0 1 0 5.462 1 1 0 1 1-1.962-.388c.15-.757.229-1.54.229-2.343Zm.559-3.519a1 1 0 0 1 1.174.788l-1.962.388a1 1 0 0 1 .788-1.176ZM8.309 4.306A1.001 1.001 0 0 1 9.333 6.02l-.481.34A12.072 12.072 0 0 0 6.02 9.333l-.062.082a1 1 0 0 1-1.6-1.194l.195-.284A14.074 14.074 0 0 1 8.22 4.358l.088-.052Zm14.083.328c.288-.43.852-.566 1.3-.328l.087.052.285.196a14.076 14.076 0 0 1 3.382 3.383l.196.284.052.088a1.001 1.001 0 0 1-1.653 1.106l-.061-.082-.341-.481a12.075 12.075 0 0 0-2.49-2.49l-.482-.341-.082-.062a1 1 0 0 1-.193-1.325ZM16 2c.934 0 1.847.092 2.731.267a1 1 0 1 1-.388 1.962 12.063 12.063 0 0 0-4.686 0 1 1 0 0 1-.388-1.962A14.066 14.066 0 0 1 16 2Z"/>
</svg>
